X:1
T:Antiphona: ASCENDIT
T:mus. J. Furmanik
T:Antiphona: ASCENDIT
T:(in Ascensione Domini)
C:mus. J. Furmanik
%%score [ ( 1 2 ) ( 3 4 ) ]
L:1/8
Q:1/4=120
M:3/4
K:A
V:1 treble nm="P1"
V:2 treble 
V:3 bass nm="P2"
V:4 bass 
V:1
!f!"^Con moto" E2 | A4 G2 |"^-""^-""^-" F6 |"^|" E4 B2 | d4 c2 | B4 B2 |"^-""^-" c6 | %7
w: A-|scen- dit||us in|ju- bi-|la- ti-|o|
w: A-|scen- dit|De-|us *||||
"^-" B4"^|" B2 | (A2 e2) d2 | c4"^|" c2 | d4 c2 |"^-""^-""^-""^-""^-" B6 |"^-""^-" A4"^|" cc | %13
w: ne: et|Do- * mi-|nus in|vo- ce||bae. A1- le-|
w: ||* in|vo- ce|tu|bae. * *|
 (B4"^-""^-" A2- |"^rit.""^-" A2 G2"^-" F2 |"^-""^-" G6) | !fermata!A6 |] %17
w: lu- *|||ja.|
w: ||||
[K:G][M:4/4]!f!"^Allegro"[Q:1/4=120] B2 | d4 B2 B2 | e4 d4 | c4 c2 c2 | B4 A4 || B3 B d2 B2 | %23
w: As-|cen- dit in|coe- lum|Do- mi- nus|ve- re.|Al- le- lu- ja,|
w: ||||||
 B3 B e2 c2 | z8 | (e3 d"^-" c2) B2 | A4 !fermata!B4 |] %27
w: al- le- lu- ja,||al- * * le-|lu- ja.|
w: ||||
V:2
 E2 | E2 ^D2 (E2- | E2 ^DC D2) | E4 E2 | (A2 GF) EA | (A2 GF) G2 | A6 | G4 G2 | A4 AG | A4 A2 | %10
 A2 A2 (A2- | A2 GF G2) | A4 AA | (F4 C2 | E6- | E4 D2) | C6 |][K:G][M:4/4] G2 | G4 G2 G2 | G4 G4 | %20
 F4 A2 A2 | G4 F4 || G3 G A2 G2 | ^G3 G B2 A2 | x8 | F6 G2 | (G2 F2) G4 |] %27
V:3
!f! C2 | A,4 B,2 |"^-" B,6 |"^|" G,4 G,2 | (A,2 B,2) C2 | D4 D2 | E6 | E4"^|" E2 | (E2 C2) D2 | %9
w: |||||||||
w: A-|scen- dit|De-|us *||||||
 E4"^|" E2 | F4 E2 |"^-" (E4"^-" D2) |"^-""^|" C6 | D4 A,2 |"^-""^-" (B,6- | B,4"^-" E,2) | E,6 |] %17
w: ||||||||
w: * in|vo- ce|tu *|bae.|Al- le-|lu-||ja.|
[K:G][M:4/4] D2 | D4 D2 D2 | C4 D4 | D4 D2 D2 | D4 D4 || D2 D2 D2 D2 | E2 E2 E2 E2 | D3 D D2 D2 | %25
w: |||||||al- le- lu- ja,|
w: ||||||||
 (C3 B, A,2) (B,C) | D4 D4 |] %27
w: ||
w: ||
V:4
 A,2 | F,4 E,2 | B,,6 | E,4 E,2 | (F,2 G,2) A,2 | B,4 B,2 | (A,2 A,,2 C,2) | E,4 E,D, | %8
 (C,2 C2) B,2 | A,4 A,2 | D4 A,2 | E,6 | F,6 | D,4 F,2 | E,6- | E,6 | !fermata!A,,6 |] %17
[K:G][M:4/4] G,2 | B,4 G,2 G,2 | C4 B,4 | A,4 F,2 F,2 | G,4 D,4 || G,3 G, F,2 G,2 | %23
 E,3 E, ^G,2 A,2 | z8 | D,6 D,2 | D,4 !fermata![G,,G,]4 |] %27

